X: 2312
T: Polska efter Jan i Björkåsberg
S: efter Jan i Björkåsberg
O: Värmland, Hagfors, Norra Råda
R: Polska
B: [[http://www.smus.se/earkiv/fmk/browselarge.php?lang=sw&katalogid=Ds+1%2C+Vr+5&bildnr=00153|SMUS katalog Ds1+Vr5 bild 153]] nr 208
Z: Nils L
M: 3/4
L: 1/16
K: Am
[A,2E2A2]>B2 c2B2 A2^G2 | A2>c2 e4 ^c2d2 | e2>f2 g2f2 d2e2 | f2>a2 g2eg f2df |
e2>c2 A2^G2 A2B2 | c2>d2 e4 ^c2d2 | e2>f2 g2f2 d2e2 | f2ag e8 ::
e4 g2fd e2c2 | A2B^G A2>B2 c2d2 | e4 g2fd e2c2 | A2B^G A4 E4 |
e4 g2fd e2c2 | A2B^G A2B2 c2d2 | e4 g2fd e2c2 | A2B^G A8 :|
(:musicend:)
(:music:)
